icons/1_Primary/Bitstamp.svg

<svg width="1024" height="1024" viewBox="0 0 1024 1024" fill="none" xmlns="http://www.w3.org/2000/svg">
<g clip-path="url(#clip0_2_1668)">
<path d="M512 1024C794.77 1024 1024 794.77 1024 512C1024 229.23 794.77 0 512 0C229.23 0 0 229.23 0 512C0 794.77 229.23 1024 512 1024Z" fill="#98DC9A"/>
<path d="M175.17 572.63H758.34V587.9H175.17V572.63ZM798.76 587.9H848.84V572.63H798.76V587.9ZM288.76 470.9H309.64V549.5H288.79L288.76 470.9ZM290.33 457.2C292.776 459.454 296.005 460.663 299.33 460.57C300.979 460.636 302.625 460.372 304.17 459.794C305.716 459.215 307.13 458.333 308.33 457.2C309.521 456.032 310.456 454.628 311.074 453.078C311.692 451.529 311.98 449.867 311.92 448.2C311.97 446.534 311.678 444.875 311.06 443.327C310.443 441.779 309.513 440.374 308.33 439.2C307.143 438.048 305.731 437.154 304.182 436.575C302.633 435.995 300.981 435.741 299.33 435.83C297.681 435.763 296.035 436.027 294.49 436.606C292.944 437.185 291.53 438.067 290.33 439.2C289.139 440.368 288.204 441.772 287.586 443.321C286.968 444.871 286.68 446.533 286.74 448.2C286.662 449.873 286.945 451.544 287.569 453.099C288.194 454.653 289.146 456.055 290.36 457.21L290.33 457.2ZM357.47 470.67V448H337.47V471.13H323.15V486.85H337.52V526.6C337.374 529.998 337.938 533.389 339.176 536.558C340.414 539.726 342.298 542.601 344.71 545C347.107 547.259 349.933 549.013 353.02 550.16C356.408 551.357 359.976 551.966 363.57 551.96C369.491 551.881 375.378 551.051 381.09 549.49L378.39 534C375.163 534.845 371.846 535.299 368.51 535.35C367.053 535.402 365.602 535.149 364.249 534.609C362.895 534.068 361.67 533.251 360.65 532.21C358.65 530.21 357.73 527.49 357.73 524.13V486.4H379.06V470.68H357.51L357.47 470.67ZM391.38 492.45C391.38 497.39 392.28 501.45 394.3 504.13C396.271 507.019 398.882 509.415 401.93 511.13C405.02 512.919 408.346 514.266 411.81 515.13C415.4 516.03 418.55 516.93 421.69 517.82C424.393 518.539 426.968 519.676 429.32 521.19C430.292 521.765 431.094 522.587 431.645 523.572C432.197 524.557 432.478 525.671 432.46 526.8C432.52 528.117 432.242 529.429 431.652 530.608C431.062 531.788 430.18 532.797 429.09 533.54C426.342 535.28 423.13 536.142 419.88 536.01C412.47 536.01 404.16 534.21 394.95 530.4L390.74 545C400.504 549.019 410.942 551.153 421.5 551.29C425.758 551.291 429.994 550.685 434.08 549.49C437.673 548.416 441.026 546.665 443.96 544.33C446.544 542.14 448.68 539.471 450.25 536.47C451.785 533.406 452.557 530.016 452.5 526.59C452.647 522.328 451.556 518.115 449.36 514.46C447.394 511.516 444.785 509.058 441.73 507.27C438.659 505.442 435.327 504.093 431.85 503.27C428.26 502.6 425.11 501.7 421.97 500.8C419.314 500.052 416.753 498.998 414.34 497.66C413.358 497.153 412.541 496.377 411.985 495.422C411.429 494.467 411.157 493.374 411.2 492.27C411.122 491.038 411.372 489.807 411.923 488.702C412.474 487.597 413.308 486.658 414.34 485.98C416.59 484.41 419.5 483.73 423.1 483.73C426.733 483.763 430.351 484.216 433.88 485.08C437.787 485.968 441.616 487.169 445.33 488.67L449.82 473.85C445.067 472.13 440.185 470.793 435.22 469.85C430.632 468.967 425.972 468.515 421.3 468.5C417.19 468.497 413.102 469.104 409.17 470.3C405.768 471.397 402.579 473.068 399.74 475.24C397.296 477.416 395.246 479.997 393.68 482.87C392.145 485.855 391.373 489.174 391.43 492.53M494.28 470.75V448H474.28V471.13H459.9V486.85H474.27V526.6C474.152 530.13 474.765 533.647 476.07 536.93C477.249 539.988 479.09 542.747 481.46 545.01C483.857 547.269 486.683 549.023 489.77 550.17C493.158 551.367 496.726 551.976 500.32 551.97C506.241 551.891 512.128 551.061 517.84 549.5L515.14 534C511.913 534.845 508.596 535.299 505.26 535.35C503.803 535.402 502.352 535.149 500.999 534.609C499.645 534.068 498.42 533.251 497.4 532.21C495.4 530.21 494.48 527.49 494.48 524.13V486.4H515.81V470.68H494.26L494.28 470.75ZM548.85 525.54C548.817 523.648 549.25 521.777 550.112 520.092C550.973 518.407 552.236 516.96 553.79 515.88C557.16 513.41 561.65 512.29 567.49 512.29C571.81 512.202 576.12 512.731 580.29 513.86V518.58C580.29 523.97 578.72 528.46 575.35 531.83C573.651 533.533 571.621 534.87 569.385 535.757C567.149 536.645 564.754 537.064 562.35 536.99C558.827 537.081 555.392 535.883 552.69 533.62C551.507 532.629 550.553 531.394 549.893 529.999C549.234 528.604 548.885 527.083 548.87 525.54M529.33 526.66C529.272 530.16 530.043 533.624 531.58 536.77C532.843 539.774 534.759 542.459 537.19 544.63C539.716 546.944 542.701 548.702 545.95 549.79C549.573 550.987 553.364 551.594 557.18 551.59C561.931 551.627 566.641 550.709 571.03 548.889C575.419 547.07 579.398 544.387 582.73 541C583.906 544.24 586.117 547.002 589.02 548.86C592.072 550.893 595.685 551.915 599.35 551.78C601.223 551.823 603.096 551.75 604.96 551.56C606.76 551.34 608.33 550.89 610.12 550.66L608.77 535.66C608.252 535.766 607.727 535.839 607.2 535.88C606.39 536.064 605.559 536.138 604.73 536.1C603.987 536.167 603.239 536.06 602.544 535.787C601.85 535.515 601.229 535.084 600.73 534.53C600.252 533.985 599.887 533.351 599.655 532.665C599.423 531.978 599.33 531.253 599.38 530.53V498.3C599.386 494.205 598.545 490.154 596.91 486.4C595.4 482.853 593.094 479.702 590.17 477.19C587.204 474.448 583.68 472.381 579.84 471.13C575.606 469.547 571.109 468.784 566.59 468.88C555.274 468.91 544.07 471.121 533.59 475.39L538.75 489.76C547.96 485.94 556.49 484.15 564.35 484.15C569.29 484.15 573.11 485.5 576.03 487.97C577.444 489.185 578.563 490.706 579.303 492.418C580.043 494.13 580.384 495.987 580.3 497.85V502.12C577.83 501.67 575.14 501.22 572.67 501C570.2 500.78 567.73 500.55 565.26 500.55C553.81 500.55 545.05 502.8 538.76 507.29C532.47 511.78 529.33 518.29 529.33 526.6M621.62 470.46V549.46H642V504.81C642 498.97 643.57 494.48 646.94 490.89C648.594 489.112 650.611 487.711 652.854 486.781C655.097 485.851 657.513 485.414 659.94 485.5C661.932 485.444 663.915 485.794 665.768 486.528C667.621 487.262 669.306 488.365 670.72 489.77C673.442 492.771 674.879 496.721 674.72 500.77V549.5H695.15V504.81C695.15 498.97 696.72 494.48 700.09 490.89C701.728 489.116 703.729 487.716 705.957 486.786C708.185 485.856 710.587 485.417 713 485.5C717.084 485.431 721.032 486.964 724 489.77C725.432 491.21 726.551 492.93 727.285 494.823C728.02 496.716 728.355 498.741 728.27 500.77V549.5H748.7V497.4C748.669 493.402 747.907 489.443 746.45 485.72C745.075 482.271 743.012 479.138 740.387 476.513C737.762 473.887 734.629 471.824 731.18 470.45C727.441 469.077 723.483 468.4 719.5 468.45C714.044 468.317 708.64 469.537 703.77 472C698.835 474.624 694.539 478.305 691.19 482.78C689.011 478.364 685.573 474.693 681.31 472.23C676.622 469.659 671.346 468.353 666 468.44C661.011 468.408 656.085 469.563 651.63 471.81C647.215 474.053 643.373 477.279 640.4 481.24L638 470.46H621.58H621.62ZM824.84 519.86C823.827 522.683 822.387 525.333 820.57 527.72C818.914 529.916 816.757 531.685 814.28 532.88C811.748 534.055 808.992 534.669 806.2 534.68C803.666 534.709 801.151 534.25 798.79 533.33C796.555 532.475 794.554 531.104 792.95 529.33C791.277 527.483 789.97 525.335 789.1 523C788.16 520.488 787.702 517.821 787.75 515.14V504.59C787.75 498.75 789.55 494.04 792.91 490.44C794.581 488.601 796.631 487.148 798.919 486.179C801.206 485.21 803.677 484.75 806.16 484.83C808.963 484.731 811.744 485.35 814.24 486.63C816.67 487.898 818.811 489.655 820.53 491.79C822.519 494.06 823.978 496.745 824.8 499.65C825.902 502.904 826.434 506.324 826.37 509.76C826.453 513.192 825.925 516.612 824.81 519.86H824.84ZM768 588.12H788.2V540.29C790.809 543.813 794.29 546.597 798.3 548.37C802.385 550.204 806.822 551.122 811.3 551.06C816.263 551.084 821.17 550.012 825.67 547.92C829.958 545.875 833.78 542.972 836.9 539.39C840.146 535.547 842.657 531.141 844.31 526.39C847.902 515.604 847.902 503.945 844.31 493.16C842.708 488.386 840.192 483.97 836.9 480.16C833.739 476.469 829.81 473.511 825.389 471.494C820.968 469.477 816.16 468.448 811.3 468.48C806.408 468.454 801.572 469.528 797.15 471.62C793.005 473.794 789.4 476.869 786.6 480.62L784.13 470.52H768V588.12ZM248.6 517.39C248.681 515.22 248.302 513.058 247.489 511.045C246.675 509.032 245.446 507.214 243.88 505.71C240.315 502.682 235.755 501.082 231.08 501.22H205.93V533.78H231.08C236.47 533.78 240.74 532.43 243.88 529.29C247.25 526.37 248.82 522.33 248.6 517.39ZM205.93 487.3H229.06C233.314 487.46 237.477 486.034 240.74 483.3C242.22 481.932 243.388 480.261 244.163 478.4C244.937 476.54 245.302 474.534 245.23 472.52C245.23 468.03 243.88 464.21 240.74 461.52C237.564 458.609 233.365 457.074 229.06 457.25H205.93V487.3ZM269.48 519.86C269.55 524.062 268.628 528.221 266.79 532C265.138 535.647 262.68 538.871 259.6 541.43C256.387 544.182 252.643 546.245 248.6 547.49C244.133 549.071 239.417 549.833 234.68 549.74H175.17V535.35C177.25 535.338 179.306 534.916 181.223 534.108C183.139 533.3 184.877 532.122 186.337 530.641C187.798 529.161 188.951 527.406 189.733 525.479C190.514 523.552 190.907 521.489 190.89 519.41V516.94C190.907 514.86 190.514 512.798 189.733 510.87C188.951 508.943 187.798 507.189 186.337 505.708C184.877 504.227 183.139 503.049 181.223 502.241C179.306 501.434 177.25 501.012 175.17 501V488C179.33 487.896 183.284 486.17 186.189 483.191C189.094 480.212 190.721 476.216 190.721 472.055C190.721 467.894 189.094 463.897 186.189 460.919C183.284 457.94 179.33 456.214 175.17 456.11V441.71H232.17C236.738 441.647 241.287 442.322 245.64 443.71C249.495 444.97 253.075 446.952 256.19 449.55C259.188 451.968 261.584 455.049 263.19 458.55C264.847 462.138 265.691 466.048 265.66 470C265.781 475.012 264.387 479.943 261.66 484.15C259.097 488.115 255.43 491.244 251.11 493.15C256.541 495.034 261.249 498.564 264.58 503.25C267.91 508 269.48 513.35 269.48 519.86Z" fill="white"/>
</g>
<defs>
<clipPath id="clip0_2_1668">
<rect width="1024" height="1024" fill="white"/>
</clipPath>
</defs>
</svg>

<svg xmlns="http://www.w3.org/2000/svg" viewBox="0 0 1024 1024">
   <circle cx="512" cy="512" r="512" style="fill:#159e49"/>
   <path d="M175.17 572.63h583.17v15.27H175.17Zm623.59 15.27h50.08v-15.27h-50.08Zm-510-117h20.88v78.6h-20.85Zm1.57-13.7a12.75 12.75 0 0 0 9 3.37 12.38 12.38 0 0 0 9-3.37 12 12 0 0 0 3.59-9 12.16 12.16 0 0 0-3.59-9 12 12 0 0 0-9-3.37 12.38 12.38 0 0 0-9 3.37 12 12 0 0 0-3.59 9 11.68 11.68 0 0 0 3.62 9.01Zm67.14 13.47V448h-20v23.13h-14.32v15.72h14.37v39.75a24.47 24.47 0 0 0 7.19 18.4 24.61 24.61 0 0 0 8.31 5.16 31.51 31.51 0 0 0 10.55 1.8 70 70 0 0 0 17.52-2.47l-2.7-15.49a41.49 41.49 0 0 1-9.88 1.35 10.48 10.48 0 0 1-7.86-3.14c-2-2-2.92-4.72-2.92-8.08V486.4h21.33v-15.72h-21.55Zm33.91 21.78c0 4.94.9 9 2.92 11.68a22.73 22.73 0 0 0 7.63 7 38.12 38.12 0 0 0 9.88 4c3.59.9 6.74 1.8 9.88 2.69a26.87 26.87 0 0 1 7.63 3.37 6.4 6.4 0 0 1 3.14 5.61 7.73 7.73 0 0 1-3.37 6.74 16 16 0 0 1-9.21 2.47c-7.41 0-15.72-1.8-24.93-5.61l-4.21 14.6a83.66 83.66 0 0 0 30.76 6.29 44.76 44.76 0 0 0 12.58-1.8 29.36 29.36 0 0 0 9.88-5.16 26.26 26.26 0 0 0 6.29-7.86 21.27 21.27 0 0 0 2.25-9.88 22.07 22.07 0 0 0-3.14-12.13 23.38 23.38 0 0 0-7.63-7.19 35.16 35.16 0 0 0-9.88-4c-3.59-.67-6.74-1.57-9.88-2.47a35.63 35.63 0 0 1-7.63-3.14 5.81 5.81 0 0 1-3.14-5.39 7 7 0 0 1 3.14-6.29c2.25-1.57 5.16-2.25 8.76-2.25a47.16 47.16 0 0 1 10.78 1.35 74.82 74.82 0 0 1 11.45 3.59l4.49-14.82a95 95 0 0 0-14.6-4 74.9 74.9 0 0 0-13.92-1.35 41.61 41.61 0 0 0-12.13 1.8 31.37 31.37 0 0 0-9.43 4.94 28.44 28.44 0 0 0-6.06 7.63 20.37 20.37 0 0 0-2.25 9.66m102.85-21.78V448h-20v23.13H459.9v15.72h14.37v39.75a25.64 25.64 0 0 0 1.8 10.33 22.23 22.23 0 0 0 5.39 8.08 24.61 24.61 0 0 0 8.31 5.16 31.51 31.51 0 0 0 10.55 1.8 70 70 0 0 0 17.52-2.47l-2.7-15.5a41.49 41.49 0 0 1-9.88 1.35 10.48 10.48 0 0 1-7.86-3.14c-2-2-2.92-4.72-2.92-8.08V486.4h21.33v-15.72h-21.55Zm54.57 54.79a11.52 11.52 0 0 1 4.94-9.66c3.37-2.47 7.86-3.59 13.7-3.59a45.44 45.44 0 0 1 12.8 1.57v4.72c0 5.39-1.57 9.88-4.94 13.25a17.59 17.59 0 0 1-13 5.16 14.46 14.46 0 0 1-9.66-3.37 10.67 10.67 0 0 1-3.82-8.08m-19.54 1.12a22.2 22.2 0 0 0 2.25 10.11 21.93 21.93 0 0 0 5.61 7.86 24.47 24.47 0 0 0 8.76 5.16 35.66 35.66 0 0 0 11.23 1.8A35.45 35.45 0 0 0 582.73 541a15.69 15.69 0 0 0 6.29 7.86 17.47 17.47 0 0 0 10.33 2.92 45.09 45.09 0 0 0 5.61-.22c1.8-.22 3.37-.67 5.16-.9l-1.35-15a12.66 12.66 0 0 1-1.57.22 9.21 9.21 0 0 1-2.47.22 4.8 4.8 0 0 1-4-1.57 5.49 5.49 0 0 1-1.35-4V498.3a29.69 29.69 0 0 0-2.47-11.9 25.11 25.11 0 0 0-6.74-9.21 28 28 0 0 0-10.33-6.06 35.69 35.69 0 0 0-13.25-2.25 88.1 88.1 0 0 0-33 6.51l5.16 14.37c9.21-3.82 17.74-5.61 25.6-5.61 4.94 0 8.76 1.35 11.68 3.82a12.3 12.3 0 0 1 4.27 9.88v4.27c-2.47-.45-5.16-.9-7.63-1.12s-4.94-.45-7.41-.45c-11.45 0-20.21 2.25-26.5 6.74s-9.43 11-9.43 19.31m92.29-56.14v79H642v-44.65c0-5.84 1.57-10.33 4.94-13.92a16.94 16.94 0 0 1 13-5.39 14.71 14.71 0 0 1 10.78 4.27 15.47 15.47 0 0 1 4 11v48.73h20.43v-44.69c0-5.84 1.57-10.33 4.94-13.92A16.79 16.79 0 0 1 713 485.5a15.63 15.63 0 0 1 11 4.27 14.72 14.72 0 0 1 4.27 11v48.73h20.43v-52.1a32.75 32.75 0 0 0-2.25-11.68 27.33 27.33 0 0 0-15.27-15.27 32.7 32.7 0 0 0-11.68-2 33.08 33.08 0 0 0-15.73 3.55 38 38 0 0 0-12.58 10.78 24.92 24.92 0 0 0-9.88-10.55 30.8 30.8 0 0 0-15.31-3.79 31.47 31.47 0 0 0-14.37 3.37 32.39 32.39 0 0 0-11.23 9.43l-2.4-10.78h-16.42Zm203.22 49.4a29.34 29.34 0 0 1-4.27 7.86 17.28 17.28 0 0 1-6.29 5.16 19.37 19.37 0 0 1-8.08 1.8 19.78 19.78 0 0 1-7.41-1.35 15.19 15.19 0 0 1-5.84-4 19.65 19.65 0 0 1-3.85-6.33 21.35 21.35 0 0 1-1.35-7.86v-10.55c0-5.84 1.8-10.55 5.16-14.15a17.16 17.16 0 0 1 13.25-5.61 16.44 16.44 0 0 1 8.08 1.8 19.88 19.88 0 0 1 6.29 5.16 20.32 20.32 0 0 1 4.27 7.86 29.79 29.79 0 0 1 1.57 10.11 28.93 28.93 0 0 1-1.56 10.1ZM768 588.12h20.2v-47.83a25.29 25.29 0 0 0 10.1 8.08 30.71 30.71 0 0 0 13 2.69 33.69 33.69 0 0 0 14.37-3.14 34.69 34.69 0 0 0 11.23-8.53 41.05 41.05 0 0 0 7.41-13 52.58 52.58 0 0 0 0-33.23 38.73 38.73 0 0 0-7.41-13 33.42 33.42 0 0 0-25.6-11.68 32.69 32.69 0 0 0-14.15 3.14 31.31 31.31 0 0 0-10.55 9l-2.47-10.1H768Zm-519.4-70.73a15.4 15.4 0 0 0-4.72-11.68 18.91 18.91 0 0 0-12.8-4.49h-25.15v32.56h25.15c5.39 0 9.66-1.35 12.8-4.49 3.37-2.92 4.94-6.96 4.72-11.9Zm-42.67-30.09h23.13a17.18 17.18 0 0 0 11.68-4 14 14 0 0 0 4.49-10.78c0-4.49-1.35-8.31-4.49-11a16.3 16.3 0 0 0-11.68-4.27h-23.13Zm63.55 32.56a26.74 26.74 0 0 1-2.69 12.14 26.44 26.44 0 0 1-7.19 9.43 30.86 30.86 0 0 1-11 6.06 39.39 39.39 0 0 1-13.92 2.25h-59.51v-14.39a15.81 15.81 0 0 0 15.72-15.94v-2.47A15.81 15.81 0 0 0 175.17 501v-13a15.95 15.95 0 0 0 0-31.89v-14.4h57a42.43 42.43 0 0 1 13.47 2 32 32 0 0 1 10.55 5.84 24.89 24.89 0 0 1 7 9 26.8 26.8 0 0 1 2.47 11.45 24.9 24.9 0 0 1-4 14.15 24.19 24.19 0 0 1-10.55 9 27.64 27.64 0 0 1 13.47 10.1c3.33 4.75 4.9 10.1 4.9 16.61Z" style="fill:#fff"/>
</svg>
